assets/images/icons/osk-exponent-2.svg

<?xml version="1.0" encoding="UTF-8" standalone="no"?>
<svg width="48px" height="48px" viewBox="0 0 48 48" version="1.1" xmlns="http://www.w3.org/2000/svg" xmlns:xlink="http://www.w3.org/1999/xlink">
    <!-- Generator: sketchtool 39.1 (31720) - http://www.bohemiancoding.com/sketch -->
    <title>F920A12E-7090-48CB-9225-7B2EE1F67311</title>
    <desc>Created with sketchtool.</desc>
    <defs>
        <rect id="path-1" x="0" y="0" width="600" height="956" fill="none"></rect>
    </defs>
    <g id="Page-1" stroke="none" stroke-width="1" fill="none" fill-rule="evenodd">
        <g id="Math-Input" transform="translate(-566.000000, -1750.000000)"></g>
        <g id="Asset-Sheet" transform="translate(-366.000000, -654.000000)">
            <g id="math_keypad_icon_exponent_2" transform="translate(366.000000, 654.000000)">
                <g id="icon">
                    <rect id="bounds" fill-opacity="0" fill="#FF0088" x="0" y="0" width="48" height="48"></rect>
                    <path d="M14,21.0008717 C14,20.4481055 14.455761,20 15.0024733,20 L24.9975267,20 C25.5511774,20 26,20.4446309 26,21.0008717 L26,34.9991283 C26,35.5518945 25.544239,36 24.9975267,36 L15.0024733,36 C14.4488226,36 14,35.5553691 14,34.9991283 L14,21.0008717 Z M16,22 L24,22 L24,34 L16,34 L16,22 Z" id="block" fill="#3B3E40"></path>
                    <path d="M33.67,23 L33.67,21.5 L31.23,21.5 C32.89,20.34 33.62,19.47 33.62,18.45 C33.62,17.11 32.49,16.23 30.92,16.23 C29.99,16.23 28.93,16.56 28.22,17.34 L29.17,18.48 C29.65,18.03 30.21,17.75 30.95,17.75 C31.44,17.75 31.87,17.99 31.87,18.45 C31.87,19.11 31.33,19.57 28.44,21.66 L28.44,23 L33.67,23 Z" id="2" fill="#3B3E40"></path>
                </g>
            </g>
        </g>
        <g id="Math-Input" transform="translate(-566.000000, -1750.000000)">
            <g id="Asset-Sheet" transform="translate(200.000000, 1096.000000)">
                <mask id="mask-2" fill="white">
                    <use xlink:href="#path-1"></use>
                </mask>
                <use id="Mask" fill="#FAFAFA" xlink:href="#path-1"></use>
                <g id="math_keypad_icon_exponent_2" mask="url(#mask-2)">
                    <g transform="translate(366.000000, 654.000000)" id="icon">
                        <g>
                            <rect id="bounds" fill-opacity="0" fill="#FF0088" x="0" y="0" width="48" height="48"></rect>
                            <path d="M14,21.0008717 C14,20.4481055 14.455761,20 15.0024733,20 L24.9975267,20 C25.5511774,20 26,20.4446309 26,21.0008717 L26,34.9991283 C26,35.5518945 25.544239,36 24.9975267,36 L15.0024733,36 C14.4488226,36 14,35.5553691 14,34.9991283 L14,21.0008717 Z M16,22 L24,22 L24,34 L16,34 L16,22 Z" id="block" fill="#3B3E40"></path>
                            <path d="M33.67,23 L33.67,21.5 L31.23,21.5 C32.89,20.34 33.62,19.47 33.62,18.45 C33.62,17.11 32.49,16.23 30.92,16.23 C29.99,16.23 28.93,16.56 28.22,17.34 L29.17,18.48 C29.65,18.03 30.21,17.75 30.95,17.75 C31.44,17.75 31.87,17.99 31.87,18.45 C31.87,19.11 31.33,19.57 28.44,21.66 L28.44,23 L33.67,23 Z" id="2" fill="#3B3E40"></path>
                        </g>
                    </g>
                </g>
            </g>
        </g>
    </g>
</svg>

<svg xmlns="http://www.w3.org/2000/svg" xmlns:xlink="http://www.w3.org/1999/xlink" width="48" height="48" xmlns:v="https://vecta.io/nano"><defs><path id="A" fill="none" d="M0 0h600v956H0z"/><path id="B" d="M14 21.001c0-.553.456-1.001 1.002-1.001h9.995A1 1 0 0 1 26 21.001v13.998c0 .553-.456 1.001-1.002 1.001h-9.995A1 1 0 0 1 14 34.999V21.001zM16 22h8v12h-8V22z"/><path id="C" d="M33.67 23v-1.5h-2.44c1.66-1.16 2.39-2.03 2.39-3.05 0-1.34-1.13-2.22-2.7-2.22-.93 0-1.99.33-2.7 1.11l.95 1.14c.48-.45 1.04-.73 1.78-.73.49 0 .92.24.92.7 0 .66-.54 1.12-3.43 3.21V23h5.23z"/></defs><g fill="none" fill-rule="evenodd"><path fill-opacity="0" fill="#f08" d="M0 0h48v48H0z"/><g fill="#3b3e40"><use xlink:href="#B"/><use xlink:href="#C"/></g><g transform="translate(-366 -654)"><mask id="D" fill="#fff"><use xlink:href="#A"/></mask><use fill="#fafafa" xlink:href="#A"/><g mask="url(#D)"><g transform="translate(366 654)"><path fill-opacity="0" fill="#f08" d="M0 0h48v48H0z"/><g fill="#3b3e40"><use xlink:href="#B"/><use xlink:href="#C"/></g></g></g></g></g></svg>
